img/f2fff94b2388480323aa514b31dbf70b.svg

<svg width="10" height="8" viewBox="0 0 10 8" fill="none" xmlns="http://www.w3.org/2000/svg">
<path d="M4.93026 7.88672L4.3248 7.33984C3.63469 6.71484 3.13339 6.2526 2.82089 5.95312C2.50839 5.65365 2.15683 5.28255 1.7662 4.83984C1.3886 4.39714 1.12818 4 0.984952 3.64844C0.841723 3.28385 0.770108 2.91276 0.770108 2.53516C0.770108 1.89714 0.984952 1.35677 1.41464 0.914062C1.85735 0.471354 2.40422 0.25 3.05526 0.25C3.81047 0.25 4.43547 0.542969 4.93026 1.12891C5.42506 0.542969 6.05006 0.25 6.80526 0.25C7.45631 0.25 7.99667 0.471354 8.42636 0.914062C8.86907 1.35677 9.09042 1.89714 9.09042 2.53516C9.09042 3.04297 8.92115 3.57031 8.58261 4.11719C8.24407 4.66406 7.87297 5.13932 7.46933 5.54297C7.0787 5.94661 6.43417 6.55208 5.53573 7.35938L4.93026 7.88672Z" fill="#BC9CFF"/>
</svg>

<svg width="10" height="8" fill="none" xmlns="http://www.w3.org/2000/svg"><path d="M4.93 7.887l-.605-.547A80.924 80.924 0 012.82 5.953c-.313-.3-.664-.67-1.055-1.113-.377-.443-.638-.84-.781-1.192A3.021 3.021 0 01.77 2.535c0-.638.215-1.178.645-1.62.442-.444.99-.665 1.64-.665.755 0 1.38.293 1.875.879C5.425.543 6.05.25 6.805.25c.651 0 1.192.221 1.621.664.443.443.664.983.664 1.621 0 .508-.169 1.035-.507 1.582a7.84 7.84 0 01-1.114 1.426c-.39.404-1.035 1.01-1.933 1.816l-.606.528z" fill="#BC9CFF"/></svg>
